Origami/32x32/apps/scout-app.svg

<svg width="32" height="32" version="1.1" viewBox="0 0 32 32" xmlns="http://www.w3.org/2000/svg">
 <path d="m15.999999 4.9999937c-0.741316 0.00398-1.453274 0.078886-2.181561 0.2187406-0.0094 0.0018-0.01867 0.00208-0.02807 0.00391-0.337741 0.063955-0.671778 0.1385321-1.00055 0.2206936-4.6378328 1.1590152-8.2712409 4.1222805-7.7377245 8.7379051 0.03918 0.329946 0.097313 0.66582 0.1784549 1.009721 0.00608 0.02576 0.013876 0.04863 0.020051 0.07422 0.644928 2.649858 2.1499291 4.377404 2.7610382 6.079815 0.00767 0.0219 0.018511 0.04451 0.026067 0.06641 1.5914631 4.609767 1.4219148 6.978446 4.4734024 8.001608 1.22739 0.40865 2.218878 0.603308 3.488894 0.585913 1.270016 0.01739 2.261503-0.177263 3.488894-0.585913 3.051489-1.023162 2.88194-3.391841 4.473403-8.001608 0.0075-0.02166 0.01458-0.0467 0.02206-0.06836 0.0014 4.46e-4 0.0026 0.0015 4e-3 2e-3 0.611109-1.702411 2.11611-3.429957 2.761038-6.079815 0.0062-0.02559 0.01399-0.04846 0.02005-0.07422 0.08114-0.343901 0.139279-0.679775 0.178454-1.009721 0.571343-4.9428763-3.63617-7.9925136-8.738268-8.9586527-0.738109-0.1434167-1.458757-0.218611-2.209633-0.2226466z" style="opacity:.2"/>
 <path d="m15.999999 3.9999938c-0.741316 0.00398-1.453274 0.078886-2.181561 0.2187406-0.0094 0.0018-0.01867 0.00208-0.02807 0.00391-0.337741 0.063955-0.671778 0.1385321-1.00055 0.2206936-4.6378328 1.1590152-7.848904 4.1222805-7.3153876 8.737905 0.03918 0.329946 0.097313 0.66582 0.1784549 1.009721 0.00608 0.02576 0.013876 0.04863 0.020051 0.07422 0.5292605 2.174607 1.6377521 3.587289 2.3560911 5.015455 0.1569897 0.312119-0.1269919 0.759033-0.01739 1.06436 0.00767 0.0219 0.018511 0.04451 0.026067 0.06641 1.5914631 4.609767 1.4219148 6.978446 4.4734026 8.001608 1.22739 0.40865 2.218878 0.603308 3.488894 0.585913 1.270016 0.01739 2.261503-0.177263 3.488894-0.585913 3.051489-1.023162 2.88194-3.391841 4.473403-8.001608 0.0075-0.02166 0.01458-0.0467 0.02206-0.06836 0.0014 4.46e-4 0.0026 0.0015 4e-3 2e-3 0.08356-0.23279-0.0039-0.841461 0.108645-1.077486 0.710269-1.490036 1.532537-2.714817 2.089277-5.002329 0.0062-0.02559 0.01399-0.04846 0.02005-0.07422 0.08114-0.343901 0.139279-0.679775 0.178454-1.009721 0.571343-4.9428762-3.073054-7.9925135-8.175152-8.9586526-0.738109-0.1434167-1.458757-0.218611-2.209633-0.2226466z" style="fill:#d7cec7"/>
 <path d="M 15.265624,22 C 14.566401,22 14,22.507362 14,23.133789 14,23.766665 15.302752,25 16,25 16.697248,25 18,23.766665 18,23.133789 18,22.507362 17.433599,22 16.734376,22 L 16,22 15.265624,22 Z" style="fill:#3f3f3f"/>
 <path d="m14.044922 4.1855469c-0.07566 0.013167-0.1506 0.018616-0.226563 0.033203-0.0094 0.0018-0.01794 0.00208-0.02734 0.00391-0.337741 0.063955-0.673181 0.1385417-1.001954 0.2207032-4.6378323 1.1590152-8.269844 4.1226567-7.7363276 8.7382819 0.03918 0.329946 0.096592 0.665864 0.1777344 1.009765 0.00608 0.02576 0.013356 0.04863 0.019531 0.07422 0.5949367 2.444455 1.9138483 4.102624 2.5957031 5.681641 3.8297301-1.304473 7.1542941-4.89413 7.1542941-9.85938 0.007463-1.8631462-0.179355-4.1713412-0.955078-5.9023441z" style="fill:#de8c4a"/>
 <circle cx="10" cy="16" r="2" style="opacity:.2"/>
 <circle cx="10" cy="15" r="2" style="fill:#3f3f3f"/>
 <circle cx="9.5" cy="14.5" r=".5" style="fill:#ffffff"/>
 <path d="m17.999987 27.571428c0 0.788978-0.895427 1.428572-1.999993 1.428572s-1.999994-0.639594-1.999994-1.428572c0-0.170008 0.04158-0.333079 0.117866-0.48431 0.277739-0.550608 0.974719-0.243838 1.841276-0.243838 0.86564 0 1.643692-0.307601 1.92211 0.242094 0.07685 0.151721 0.118748 0.315393 0.118748 0.486054z" style="fill:#d86f6f"/>
 <path d="m 12.5,26.5 c 0,0 0.88458,0.49264 1.714286,0.71298 C 14.728847,27.349629 16,26.498695 16,26.498695 c 0,0 1.271153,0.850934 1.785714,0.714285 C 18.61542,26.99264 19.5,26.5 19.5,26.5" style="fill:none;stroke-linecap:round;stroke-linejoin:round;stroke:#79431b"/>
 <path d="m17.95507 4.1855469c0.07566 0.013167 0.1506 0.018616 0.226563 0.033203 0.0094 0.0018 0.01794 0.00208 0.02734 0.00391 0.337741 0.063955 0.673181 0.1385417 1.001954 0.2207032 4.637832 1.1590152 8.269844 4.1226567 7.736328 8.7382819-0.03918 0.329946-0.09659 0.665864-0.177735 1.009765-0.0061 0.02576-0.01336 0.04863-0.01953 0.07422-0.594937 2.444455-1.913848 4.102624-2.595703 5.681641-3.82973-1.304473-7.154294-4.89413-7.154294-9.85938-0.0075-1.8631462 0.179355-4.1713412 0.955078-5.9023441z" style="fill:#de8c4a"/>
 <path d="m16 4c-0.741316 0.00398-1.453354 0.078895-2.181641 0.21875-0.0094 0.0018-0.01794 0.00208-0.02734 0.00391-0.337741 0.063955-0.673181 0.1385417-1.001954 0.2207032-0.579731 0.1448731-1.143385 0.3185644-1.685549 0.5195274-0.270492 0.100275-0.538048 0.2081369-0.796875 0.3222656-1.5555484 0.6862857-2.8862925 1.6214624-3.8261722 2.7988282v0.00195c-0.7829452 0.9812103-1.2961386 2.1294146-1.4394532 3.4414096v2e-3c-0.043744 0.4015-0.041772 0.823643-0.013672 1.255859 0.00605-0.08434 0.00463-0.172873 0.013672-0.255859v-2e-3c0.1433146-1.311995 0.656508-2.460199 1.4394532-3.4414065v-0.00195c0.9398797-1.1773689 2.2706238-2.1125456 3.8261722-2.7988313 0.258827-0.1141287 0.526383-0.2219906 0.796875-0.3222656 0.542164-0.200963 1.105817-0.3746543 1.685546-0.5195312 0.328774-0.082162 0.664213-0.1567482 1.001954-0.2207032 0.0094-0.00183 0.01794-0.00211 0.02734-0.00391 0.72829-0.1398512 1.440328-0.2147662 2.181644-0.2187462 0.664224 0.00357 1.305151 0.072644 1.955078 0.1855469 0.07566 0.013167 0.150597 0.01862 0.226563 0.033203 0.0092 0.00176 0.01814 0.00213 0.02734 0.00391 0.338515 0.064101 0.672449 0.1383139 1.001954 0.2207032 0.579125 0.1448048 1.142058 0.318708 1.683593 0.5195312h2e-3 2e-3c0.202818 0.075258 0.399334 0.1591305 0.595703 0.2421875 0.07292 0.030824 0.148733 0.057948 0.220703 0.089844 0.161497 0.071615 0.316217 0.1495598 0.472656 0.2265625 0.110009 0.054121 0.220775 0.1072861 0.328125 0.1640625 0.136086 0.072009 0.266861 0.1483431 0.398437 0.2246093 0.1104 0.063954 0.221072 0.128371 0.328126 0.1953126 0.118868 0.074369 0.233117 0.1524248 0.347656 0.2304687 0.125912 0.085759 0.250685 0.1715334 0.371094 0.2617187 0.09677 0.072494 0.190152 0.1473116 0.283203 0.2226563 0.109772 0.088874 0.217897 0.1786525 0.322265 0.2714844 0.102173 0.090874 0.200108 0.1846428 0.296875 0.2792969 0.09356 0.091532 0.185142 0.1842395 0.273438 0.2792968 0.09248 0.099547 0.181103 0.2012864 0.267578 0.3046875 0.08214 0.098204 0.159819 0.1991097 0.236328 0.3007813 0.07423 0.098644 0.148049 0.1969305 0.216797 0.2988281 0.08208 0.1216696 0.158452 0.2486064 0.232422 0.375 0.0559 0.09546 0.110989 0.1909726 0.162109 0.2890626 0.0672 0.128899 0.126887 0.261094 0.185547 0.394531 0.04716 0.107277 0.09527 0.214019 0.136719 0.324219 0.04753 0.12641 0.08714 0.256471 0.126953 0.386719 0.03724 0.121761 0.07714 0.242084 0.107422 0.367187 0.03441 0.142273 0.05689 0.290917 0.08203 0.4375 0.01954 0.113963 0.04481 0.225238 0.05859 0.341797 0.01266 0.106876 0.01419 0.21821 0.01953 0.328125 0.01061-0.165131 0.02908-0.333148 0.0293-0.49414 1.2e-4 -0.08974-0.01052-0.175313-0.01367-0.263672-0.0069-0.193043-0.01308-0.385848-0.03516-0.572266-0.01378-0.116559-0.03905-0.227834-0.05859-0.341797-0.02514-0.146583-0.04762-0.295227-0.08203-0.4375-0.03028-0.125103-0.07018-0.245426-0.107422-0.367187-0.03981-0.130248-0.07942-0.260309-0.126953-0.3867192-0.041545-0.1102038-0.089654-0.2169456-0.136809-0.3242227-0.058658-0.1334375-0.118346-0.2656325-0.185547-0.3945312-0.051117-0.0980932-0.106204-0.1936034-0.162109-0.2890625-0.073976-0.1262969-0.150339-0.2513773-0.232422-0.3730469-0.068748-0.1018976-0.142567-0.2001842-0.216797-0.2988281-0.076509-0.1016716-0.154193-0.2025777-0.236328-0.3007813-0.086475-0.1034011-0.175099-0.2051403-0.267578-0.3046875-0.088296-0.0950573-0.179876-0.1877651-0.273438-0.2792968-0.096767-0.094654-0.194702-0.1884229-0.296875-0.2792969-0.104368-0.0928319-0.212493-0.18261-0.322265-0.2714844-0.093051-0.0753447-0.186433-0.1501625-0.283203-0.2226563-0.120409-0.0901854-0.245182-0.1759599-0.371094-0.2617187-0.114539-0.0780439-0.228788-0.1560993-0.347656-0.2304687-0.107054-0.0669416-0.217726-0.1313585-0.328126-0.1953126-0.131576-0.0762662-0.262351-0.1526-0.398437-0.2246093-0.10735-0.0567764-0.218116-0.1099414-0.328125-0.1640625-0.156439-0.0770027-0.311159-0.1549471-0.472656-0.2265625-0.07197-0.031896-0.147787-0.05902-0.220703-0.089844-0.196369-0.083057-0.392885-0.1669294-0.595703-0.2421875h-2e-3 -2e-3c-0.541535-0.2008232-1.104375-0.3747262-1.6835-0.519531-0.329505-0.082389-0.663439-0.1566017-1.001954-0.2207032-0.0092-0.00178-0.01818-0.00215-0.02734-0.00391-0.075966-0.0145832-0.150906-0.0200323-0.226566-0.0331993-0.649927-0.1129028-1.290854-0.181977-1.955078-0.1855469z" style="fill:#ffffff;opacity:.2"/>
 <path d="m11.576004 7.1557546s2.710925-2.8950461 0.651909-3.7190264c-2.3064548-0.9230005-8.4697821-0.339986-10.61949 1.3432878-0.82058048 0.6252979-0.62970811 1.1677044-0.4591686 1.908575 0.5901599 2.5628786 2.5460696 9.099727 2.8462156 9.30607 0.3736144 0.25685 7.5805345-8.8389064 7.5805345-8.8389064z" style="opacity:.2"/>
 <path d="m11.576004 6.1557547s2.710925-2.8950461 0.651909-3.7190264c-2.3064548-0.9230005-8.4697821-0.339986-10.61949 1.3432878-0.82058048 0.6252979-0.62970811 1.1677044-0.4591686 1.908575 0.5901599 2.5628786 2.5460696 9.0997269 2.8462156 9.3060699 0.3736144 0.25685 7.5805345-8.8389063 7.5805345-8.8389063z" style="fill:#86522b"/>
 <circle transform="scale(-1,1)" cx="-22" cy="16" r="2" style="opacity:.2"/>
 <circle transform="scale(-1,1)" cx="-22" cy="15" r="2" style="fill:#3f3f3f"/>
 <circle transform="scale(-1,1)" cx="-21.5" cy="14.5" r=".5" style="fill:#ffffff"/>
 <path d="m20.423996 7.1557546s-2.710925-2.8950461-0.651909-3.7190264c2.306455-0.9230005 8.469782-0.339986 10.61949 1.3432878 0.820581 0.6252979 0.629709 1.1677044 0.459169 1.908575-0.59016 2.5628786-2.54607 9.099727-2.846216 9.30607-0.373614 0.25685-7.580534-8.8389064-7.580534-8.8389064z" style="opacity:.2"/>
 <path d="m20.423996 6.1557547s-2.710925-2.8950461-0.651909-3.7190264c2.306455-0.9230005 8.469782-0.339986 10.61949 1.3432878 0.820581 0.6252979 0.629709 1.1677044 0.459169 1.908575-0.59016 2.5628786-2.54607 9.0997269-2.846216 9.3060699-0.373614 0.25685-7.580534-8.8389063-7.580534-8.8389063z" style="fill:#86522b"/>
 <path d="m8.421875 2.0117188c-2.5577008 0.093407-5.4689323 0.715532-6.8125 1.7675781-0.70884511 0.5401534-0.65901293 1.0271933-0.5234375 1.625 0.08526-0.2058527 0.2426153-0.4110081 0.5234375-0.625 2.1497084-1.6832738 8.3126858-2.2647974 10.619141-1.3417969 0.35916 0.1437293 0.565232 0.3522991 0.673828 0.5957031 0.197583-0.650707 0.122213-1.2771421-0.673828-1.5957031-0.864921-0.3461252-2.2720205-0.4818255-3.806641-0.4257812z" style="fill:#ffffff;opacity:.1"/>
 <path d="m23.578125 2.0117188c-1.53462-0.056044-2.94172 0.079656-3.806641 0.4257812-0.796041 0.318561-0.871411 0.9449961-0.673828 1.5957031 0.108596-0.243404 0.314668-0.4519738 0.673828-0.5957031 2.306455-0.9230005 8.469433-0.3414769 10.619141 1.3417969 0.280822 0.2139919 0.438178 0.4191473 0.523437 0.625 0.135576-0.5978067 0.185409-1.0848466-0.523437-1.625-1.343567-1.0520462-4.254799-1.6741711-6.8125-1.7675781z" style="fill:#ffffff;opacity:.1"/>
</svg>

<svg xmlns="http://www.w3.org/2000/svg" width="32" height="32" version="1.1" viewBox="0 0 32 32">
 <path style="opacity:0.2" d="m 15.999999,4.9999937 c -0.741316,0.00398 -1.453274,0.078886 -2.181561,0.2187406 -0.0094,0.0018 -0.01867,0.00208 -0.02807,0.00391 -0.337741,0.063955 -0.671778,0.1385321 -1.00055,0.2206936 -4.6378328,1.1590152 -8.2712409,4.1222805 -7.7377245,8.7379051 0.03918,0.329946 0.097313,0.66582 0.1784549,1.009721 0.00608,0.02576 0.013876,0.04863 0.020051,0.07422 0.644928,2.649858 2.1499291,4.377404 2.7610382,6.079815 0.00767,0.0219 0.018511,0.04451 0.026067,0.06641 1.5914631,4.609767 1.4219148,6.978446 4.4734024,8.001608 1.22739,0.40865 2.218878,0.603308 3.488894,0.585913 1.270016,0.01739 2.261503,-0.177263 3.488894,-0.585913 3.051489,-1.023162 2.88194,-3.391841 4.473403,-8.001608 0.0075,-0.02166 0.01458,-0.0467 0.02206,-0.06836 0.0014,4.46e-4 0.0026,0.0015 0.004,0.002 0.611109,-1.702411 2.11611,-3.429957 2.761038,-6.079815 0.0062,-0.02559 0.01399,-0.04846 0.02005,-0.07422 0.08114,-0.343901 0.139279,-0.679775 0.178454,-1.009721 C 27.519243,9.2384167 23.31173,6.1887794 18.209632,5.2226403 17.471523,5.0792236 16.750875,5.0040293 15.999999,4.9999937 Z"/>
 <path style="fill:#d7cec7" d="m 15.999999,3.9999938 c -0.741316,0.00398 -1.453274,0.078886 -2.181561,0.2187406 -0.0094,0.0018 -0.01867,0.00208 -0.02807,0.00391 -0.337741,0.063955 -0.671778,0.1385321 -1.00055,0.2206936 -4.6378328,1.1590152 -7.848904,4.1222805 -7.3153876,8.737905 0.03918,0.329946 0.097313,0.66582 0.1784549,1.009721 0.00608,0.02576 0.013876,0.04863 0.020051,0.07422 0.5292605,2.174607 1.6377521,3.587289 2.3560911,5.015455 0.1569897,0.312119 -0.1269919,0.759033 -0.01739,1.06436 0.00767,0.0219 0.018511,0.04451 0.026067,0.06641 1.5914631,4.609767 1.4219148,6.978446 4.4734026,8.001608 1.22739,0.40865 2.218878,0.603308 3.488894,0.585913 1.270016,0.01739 2.261503,-0.177263 3.488894,-0.585913 3.051489,-1.023162 2.88194,-3.391841 4.473403,-8.001608 0.0075,-0.02166 0.01458,-0.0467 0.02206,-0.06836 0.0014,4.46e-4 0.0026,0.0015 0.004,0.002 0.08356,-0.23279 -0.0039,-0.841461 0.108645,-1.077486 0.710269,-1.490036 1.532537,-2.714817 2.089277,-5.002329 0.0062,-0.02559 0.01399,-0.04846 0.02005,-0.07422 0.08114,-0.343901 0.139279,-0.679775 0.178454,-1.009721 C 26.956127,8.2384168 23.31173,5.1887795 18.209632,4.2226404 17.471523,4.0792237 16.750875,4.0040294 15.999999,3.9999938 Z"/>
 <path style="fill:#3f3f3f" d="M 15.265624,22 C 14.566401,22 14,22.507362 14,23.133789 14,23.766665 15.302752,25 16,25 16.697248,25 18,23.766665 18,23.133789 18,22.507362 17.433599,22 16.734376,22 L 16,22 15.265624,22 Z"/>
 <path style="fill:#de8c4a" d="m 14.044922,4.1855469 c -0.07566,0.013167 -0.1506,0.018616 -0.226563,0.033203 -0.0094,0.0018 -0.01794,0.00208 -0.02734,0.00391 -0.337741,0.063955 -0.673181,0.1385417 -1.001954,0.2207032 -4.6378323,1.1590152 -8.269844,4.1226567 -7.7363276,8.7382819 0.03918,0.329946 0.096592,0.665864 0.1777344,1.009765 0.00608,0.02576 0.013356,0.04863 0.019531,0.07422 0.5949367,2.444455 1.9138483,4.102624 2.5957031,5.681641 C 11.675436,18.642798 15,15.053141 15,10.087891 15.007463,8.2247448 14.820645,5.9165498 14.044922,4.1855469 Z"/>
 <circle style="opacity:0.2" cx="10" cy="16" r="2"/>
 <circle style="fill:#3f3f3f" cx="10" cy="15" r="2"/>
 <circle style="fill:#ffffff" cx="9.5" cy="14.5" r=".5"/>
 <path style="fill:#d86f6f" d="M 17.999987,27.571428 C 17.999987,28.360406 17.10456,29 15.999994,29 14.895428,29 14,28.360406 14,27.571428 c 0,-0.170008 0.04158,-0.333079 0.117866,-0.48431 0.277739,-0.550608 0.974719,-0.243838 1.841276,-0.243838 0.86564,0 1.643692,-0.307601 1.92211,0.242094 C 17.958102,27.237095 18,27.400767 18,27.571428 Z"/>
 <path style="fill:none;stroke:#79431b;stroke-linecap:round;stroke-linejoin:round" d="m 12.5,26.5 c 0,0 0.88458,0.49264 1.714286,0.71298 C 14.728847,27.349629 16,26.498695 16,26.498695 c 0,0 1.271153,0.850934 1.785714,0.714285 C 18.61542,26.99264 19.5,26.5 19.5,26.5"/>
 <path style="fill:#de8c4a" d="m 17.95507,4.1855469 c 0.07566,0.013167 0.1506,0.018616 0.226563,0.033203 0.0094,0.0018 0.01794,0.00208 0.02734,0.00391 0.337741,0.063955 0.673181,0.1385417 1.001954,0.2207032 4.637832,1.1590152 8.269844,4.1226567 7.736328,8.7382819 -0.03918,0.329946 -0.09659,0.665864 -0.177735,1.009765 -0.0061,0.02576 -0.01336,0.04863 -0.01953,0.07422 -0.594937,2.444455 -1.913848,4.102624 -2.595703,5.681641 -3.82973,-1.304473 -7.154294,-4.89413 -7.154294,-9.85938 -0.0075,-1.8631462 0.179355,-4.1713412 0.955078,-5.9023441 z"/>
 <path style="opacity:0.2;fill:#ffffff" d="m 16,4 c -0.741316,0.00398 -1.453354,0.078895 -2.181641,0.21875 -0.0094,0.0018 -0.01794,0.00208 -0.02734,0.00391 C 13.453278,4.286615 13.117838,4.3612017 12.789065,4.4433632 12.209334,4.5882363 11.64568,4.7619276 11.103516,4.9628906 10.833024,5.0631656 10.565468,5.1710275 10.306641,5.2851562 8.7510926,5.9714419 7.4203485,6.9066186 6.4804688,8.0839844 l 0,0.00195 C 5.6975236,9.0671447 5.1843302,10.215349 5.0410156,11.527344 l 0,0.002 c -0.043744,0.4015 -0.041772,0.823643 -0.013672,1.255859 0.00605,-0.08434 0.00463,-0.172873 0.013672,-0.255859 l 0,-0.002 c 0.1433146,-1.311995 0.656508,-2.460199 1.4394532,-3.4414065 l 0,-0.00195 C 7.4203485,7.9066186 8.7510926,6.9714419 10.306641,6.2851562 c 0.258827,-0.1141287 0.526383,-0.2219906 0.796875,-0.3222656 0.542164,-0.200963 1.105817,-0.3746543 1.685546,-0.5195312 0.328774,-0.082162 0.664213,-0.1567482 1.001954,-0.2207032 0.0094,-0.00183 0.01794,-0.00211 0.02734,-0.00391 C 14.546646,5.078895 15.258684,5.00398 16,5 c 0.664224,0.00357 1.305151,0.072644 1.955078,0.1855469 0.07566,0.013167 0.150597,0.01862 0.226563,0.033203 0.0092,0.00176 0.01814,0.00213 0.02734,0.00391 0.338515,0.064101 0.672449,0.1383139 1.001954,0.2207032 0.579125,0.1448048 1.142058,0.318708 1.683593,0.5195312 0,0 0.002,0 0.002,0 0,0 0.002,0 0.002,0 0.202818,0.075258 0.399334,0.1591305 0.595703,0.2421875 0.07292,0.030824 0.148733,0.057948 0.220703,0.089844 0.161497,0.071615 0.316217,0.1495598 0.472656,0.2265625 0.110009,0.054121 0.220775,0.1072861 0.328125,0.1640625 0.136086,0.072009 0.266861,0.1483431 0.398437,0.2246093 0.1104,0.063954 0.221072,0.128371 0.328126,0.1953126 0.118868,0.074369 0.233117,0.1524248 0.347656,0.2304687 0.125912,0.085759 0.250685,0.1715334 0.371094,0.2617187 0.09677,0.072494 0.190152,0.1473116 0.283203,0.2226563 0.109772,0.088874 0.217897,0.1786525 0.322265,0.2714844 0.102173,0.090874 0.200108,0.1846428 0.296875,0.2792969 0.09356,0.091532 0.185142,0.1842395 0.273438,0.2792968 0.09248,0.099547 0.181103,0.2012864 0.267578,0.3046875 0.08214,0.098204 0.159819,0.1991097 0.236328,0.3007813 0.07423,0.098644 0.148049,0.1969305 0.216797,0.2988281 0.08208,0.1216696 0.158452,0.2486064 0.232422,0.375 0.0559,0.09546 0.110989,0.1909726 0.162109,0.2890626 0.0672,0.128899 0.126887,0.261094 0.185547,0.394531 0.04716,0.107277 0.09527,0.214019 0.136719,0.324219 0.04753,0.12641 0.08714,0.256471 0.126953,0.386719 0.03724,0.121761 0.07714,0.242084 0.107422,0.367187 0.03441,0.142273 0.05689,0.290917 0.08203,0.4375 0.01954,0.113963 0.04481,0.225238 0.05859,0.341797 0.01266,0.106876 0.01419,0.21821 0.01953,0.328125 0.01061,-0.165131 0.02908,-0.333148 0.0293,-0.49414 1.2e-4,-0.08974 -0.01052,-0.175313 -0.01367,-0.263672 -0.0069,-0.193043 -0.01308,-0.385848 -0.03516,-0.572266 -0.01378,-0.116559 -0.03905,-0.227834 -0.05859,-0.341797 -0.02514,-0.146583 -0.04762,-0.295227 -0.08203,-0.4375 -0.03028,-0.125103 -0.07018,-0.245426 -0.107422,-0.367187 -0.03981,-0.130248 -0.07942,-0.260309 -0.126953,-0.3867192 C 26.532764,9.825347 26.484655,9.7186052 26.4375,9.6113281 26.378842,9.4778906 26.319154,9.3456956 26.251953,9.2167969 26.200836,9.1187037 26.145749,9.0231935 26.089844,8.9277344 26.015868,8.8014375 25.939505,8.6763571 25.857422,8.5546875 25.788674,8.4527899 25.714855,8.3545033 25.640625,8.2558594 25.564116,8.1541878 25.486432,8.0532817 25.404297,7.9550781 25.317822,7.851677 25.229198,7.7499378 25.136719,7.6503906 25.048423,7.5553333 24.956843,7.4626255 24.863281,7.3710938 24.766514,7.2764398 24.668579,7.1826709 24.566406,7.0917969 24.462038,6.998965 24.353913,6.9091869 24.244141,6.8203125 24.15109,6.7449678 24.057708,6.67015 23.960938,6.5976562 23.840529,6.5074708 23.715756,6.4216963 23.589844,6.3359375 23.475305,6.2578936 23.361056,6.1798382 23.242188,6.1054688 23.135134,6.0385272 23.024462,5.9741103 22.914062,5.9101562 22.782486,5.83389 22.651711,5.7575562 22.515625,5.6855469 22.408275,5.6287705 22.297509,5.5756055 22.1875,5.5214844 22.031061,5.4444817 21.876341,5.3665373 21.714844,5.2949219 c -0.07197,-0.031896 -0.147787,-0.05902 -0.220703,-0.089844 -0.196369,-0.083057 -0.392885,-0.1669294 -0.595703,-0.2421875 0,0 -0.002,0 -0.002,0 0,0 -0.002,0 -0.002,0 -0.541535,-0.2008232 -1.104375,-0.3747262 -1.6835,-0.519531 -0.329505,-0.082389 -0.663439,-0.1566017 -1.001954,-0.2207032 -0.0092,-0.00178 -0.01818,-0.00215 -0.02734,-0.00391 C 18.105678,4.204163 18.030738,4.1987139 17.955078,4.1855469 17.305151,4.0726441 16.664224,4.0035699 16,4 Z"/>
 <path style="opacity:0.2" d="m 11.576004,7.1557546 c 0,0 2.710925,-2.8950461 0.651909,-3.7190264 C 9.9214582,2.5137277 3.7581309,3.0967422 1.6084225,4.780016 0.78784202,5.4053139 0.97871439,5.9477204 1.1492539,6.688591 c 0.5901599,2.5628786 2.5460696,9.099727 2.8462156,9.30607 0.3736144,0.25685 7.5805345,-8.8389064 7.5805345,-8.8389064 z"/>
 <path style="fill:#86522b" d="m 11.576004,6.1557547 c 0,0 2.710925,-2.8950461 0.651909,-3.7190264 C 9.9214582,1.5137278 3.7581309,2.0967423 1.6084225,3.7800161 0.78784202,4.405314 0.97871439,4.9477205 1.1492539,5.6885911 1.7394138,8.2514697 3.6953235,14.788318 3.9954695,14.994661 4.3690839,15.251511 11.576004,6.1557547 11.576004,6.1557547 Z"/>
 <circle style="opacity:0.2" cx="-22" cy="16" r="2" transform="scale(-1,1)"/>
 <circle style="fill:#3f3f3f" cx="-22" cy="15" r="2" transform="scale(-1,1)"/>
 <circle style="fill:#ffffff" cx="-21.5" cy="14.5" r=".5" transform="scale(-1,1)"/>
 <path style="opacity:0.2" d="m 20.423996,7.1557546 c 0,0 -2.710925,-2.8950461 -0.651909,-3.7190264 2.306455,-0.9230005 8.469782,-0.339986 10.61949,1.3432878 0.820581,0.6252979 0.629709,1.1677044 0.459169,1.908575 -0.59016,2.5628786 -2.54607,9.099727 -2.846216,9.30607 -0.373614,0.25685 -7.580534,-8.8389064 -7.580534,-8.8389064 z"/>
 <path style="fill:#86522b" d="m 20.423996,6.1557547 c 0,0 -2.710925,-2.8950461 -0.651909,-3.7190264 2.306455,-0.9230005 8.469782,-0.339986 10.61949,1.3432878 0.820581,0.6252979 0.629709,1.1677044 0.459169,1.908575 -0.59016,2.5628786 -2.54607,9.0997269 -2.846216,9.3060699 -0.373614,0.25685 -7.580534,-8.8389063 -7.580534,-8.8389063 z"/>
 <path style="opacity:0.1;fill:#ffffff" d="m 8.421875,2.0117188 c -2.5577008,0.093407 -5.4689323,0.715532 -6.8125,1.7675781 -0.70884511,0.5401534 -0.65901293,1.0271933 -0.5234375,1.625 0.08526,-0.2058527 0.2426153,-0.4110081 0.5234375,-0.625 C 3.7590834,3.0960231 9.9220608,2.5144995 12.228516,3.4375 12.587676,3.5812293 12.793748,3.7897991 12.902344,4.0332031 13.099927,3.3824961 13.024557,2.756061 12.228516,2.4375 11.363595,2.0913748 9.9564955,1.9556745 8.421875,2.0117188 Z"/>
 <path style="opacity:0.1;fill:#ffffff" d="m 23.578125,2.0117188 c -1.53462,-0.056044 -2.94172,0.079656 -3.806641,0.4257812 -0.796041,0.318561 -0.871411,0.9449961 -0.673828,1.5957031 0.108596,-0.243404 0.314668,-0.4519738 0.673828,-0.5957031 2.306455,-0.9230005 8.469433,-0.3414769 10.619141,1.3417969 0.280822,0.2139919 0.438178,0.4191473 0.523437,0.625 0.135576,-0.5978067 0.185409,-1.0848466 -0.523437,-1.625 -1.343567,-1.0520462 -4.254799,-1.6741711 -6.8125,-1.7675781 z"/>
</svg>
